X:0735
M:C|
L:1/8
Q:1/2=104
K:G
d|gbdg egdg|cgBg        Aaac'|bgdg     egfa |gedc BGGd|
  gbdg cgBg|dgbg        afc'a|bgdg     ec'ba|gedc BGG|]

